frontend/public/assets/material-icons/folder-vuepress.svg

<svg xmlns="http://www.w3.org/2000/svg" viewBox="0 0 32 32">
  <path d="M13.84376,7.53645l-1.28749-1.0729A2,2,0,0,0,11.27591,6H4A2,2,0,0,0,2,8V24a2,2,0,0,0,2,2H28a2,2,0,0,0,2-2V10a2,2,0,0,0-2-2H15.12412A2,2,0,0,1,13.84376,7.53645Z" style="fill: #41b883"/>
  <g>
    <path d="M18.4,12A2.22756,2.22756,0,0,0,16,14V26a2.22756,2.22756,0,0,0,2.4,2H29.6A2.22756,2.22756,0,0,0,32,26V14a2.22756,2.22756,0,0,0-2.4-2Z" style="fill: #e8f5e9;fill-rule: evenodd"/>
    <g>
      <path d="M18,16.00028,24.00042,26,30,16.04841v-.04813H27.66675l-3.63169,6.02547-3.61563-6.02547Z" style="fill: #41b883;fill-rule: evenodd"/>
      <path d="M20.41835,16l3.61558,6.02646L27.66656,16h-2.188l-1.4299,2.3721L22.6246,16Z" style="fill: #35495e;fill-rule: evenodd"/>
    </g>
  </g>
</svg>

<svg xmlns="http://www.w3.org/2000/svg" viewBox="0 0 32 32"><path fill="#41b883" d="m13.844 7.536-1.288-1.072A2 2 0 0 0 11.276 6H4a2 2 0 0 0-2 2v16a2 2 0 0 0 2 2h24a2 2 0 0 0 2-2V10a2 2 0 0 0-2-2H15.124a2 2 0 0 1-1.28-.464"/><path fill="#e8f5e9" d="M18.4 12a2.23 2.23 0 0 0-2.4 2v12a2.23 2.23 0 0 0 2.4 2h11.2a2.23 2.23 0 0 0 2.4-2V14a2.23 2.23 0 0 0-2.4-2Z"/><path fill="#41b883" d="m18 16 6 10 6-9.952V16h-2.333l-3.632 6.026L20.42 16Z"/><path fill="#35495e" d="m20.418 16 3.616 6.026L27.667 16h-2.188l-1.43 2.372L22.625 16Z"/></svg>
